X:60
T: Paddy Kelly's (A)
S: J.Kelly - P.O'Brien
Z: B.Black
R: reel
M: 4/4
L: 1/8
K: G
B | AD D2 ADBD | AD D2 ADAc | BG (3GFG BGdG |\
Bdde d2 cB |
AD D2 ADBD | AD D2 ADAc | BG (3GFG BGdG |\
Bdde d3 :|
B | ceed cBAG | ceed c3 d | e2 ed efge |\
dBGB d2 ed |
ceed cBAG | ceed c3 d | e2 ed efge |\
dBGB d3 :|
